icon-themes/breeze_svg/cmd/sc_paralefttoright.svg

<svg viewBox="0 0 16 16" xmlns="http://www.w3.org/2000/svg">/&gt;<path d="m9 2c-2.20914 0-4 1.79085-4 4s1.79086 4 4 4v2 1 1h1v-11h1v11h1v-12h-2zm-5.90625 7 2 2h-3.09375v1h3.09375l-2 2h1.40625l2.3125-2.28125.1875-.21875-.1875-.21875-2.3125-2.28125z" fill="#4d4d4d"/></svg>

<svg xmlns="http://www.w3.org/2000/svg" viewBox="0 0 16 16">
     />
 <path 
     style="fill:#4d4d4d" 
     d="M 9 2 C 6.79086 2 5 3.79085 5 6 C 5 8.20915 6.79086 10 9 10 L 9 12 L 9 13 L 9 14 L 10 14 L 10 3 L 11 3 L 11 14 L 12 14 L 12 2 L 10 2 L 9 2 z M 3.09375 9 L 5.09375 11 L 2 11 L 2 12 L 5.09375 12 L 3.09375 14 L 4.5 14 L 6.8125 11.71875 L 7 11.5 L 6.8125 11.28125 L 4.5 9 L 3.09375 9 z "
     />
 </svg>
